common/src/main/resources/actions/compiledClassesFolder.svg

<svg xmlns="http://www.w3.org/2000/svg" width="16" height="16" fill="#26A69A" data-big="true" viewBox="0 0 24 24"><path d="M20 6a2 2 0 0 1 2 2v10a2 2 0 0 1-2 2H4a2 2 0 0 1-2-2V6c0-1.11.89-2 2-2h6l2 2zm-1 11v-4h-1v-1a3 3 0 0 0-3-3 3 3 0 0 0-3 3v1h-1v4zm-4-6a1 1 0 0 1 1 1v1h-2v-1a1 1 0 0 1 1-1"/></svg>

<!--
  - The MIT License (MIT)
  -
  - Copyright (c) 2015-2023 Elior "Mallowigi" Boukhobza
  -
  - Permission is hereby granted, free of charge, to any person obtaining a copy
  - of this software and associated documentation files (the "Software"), to deal
  - in the Software without restriction, including without limitation the rights
  - to use, copy, modify, merge, publish, distribute, sublicense, and/or sell
  - copies of the Software, and to permit persons to whom the Software is
  - furnished to do so, subject to the following conditions:
  -
  - The above copyright notice and this permission notice shall be included in all
  - copies or substantial portions of the Software.
  -
  - THE SOFTWARE IS PROVIDED "AS IS", WITHOUT WARRANTY OF ANY KIND, EXPRESS OR
  - IMPLIED, INCLUDING BUT NOT LIMITED TO THE WARRANTIES OF MERCHANTABILITY,
  - FITNESS FOR A PARTICULAR PURPOSE AND NONINFRINGEMENT. IN NO EVENT SHALL THE
  - AUTHORS OR COPYRIGHT HOLDERS BE LIABLE FOR ANY CLAIM, DAMAGES OR OTHER
  - LIABILITY, WHETHER IN AN ACTION OF CONTRACT, TORT OR OTHERWISE, ARISING FROM,
  - OUT OF OR IN CONNECTION WITH THE SOFTWARE OR THE USE OR OTHER DEALINGS IN THE
  - SOFTWARE.
  -
  -->


<svg data-big="true" xmlns="http://www.w3.org/2000/svg" version="1.1" width="16px" height="16px" fill="#26A69A"
     viewBox="0 0 24 24">
  <path
    d="M20,6A2,2 0 0,1 22,8V18A2,2 0 0,1 20,20H4C2.89,20 2,19.1 2,18V6C2,4.89 2.89,4 4,4H10L12,6H20M19,17V13H18V12A3,3 0 0,0 15,9A3,3 0 0,0 12,12V13H11V17H19M15,11A1,1 0 0,1 16,12V13H14V12A1,1 0 0,1 15,11Z"/>
</svg>
